app/dist/common/images/zhejiang-conba-pharmaceutical-coltd.svg

<svg height="18" viewBox="0 0 18 18" width="18" xmlns="http://www.w3.org/2000/svg"><path d="m0 0h18v18h-18z" fill="#f0f3fa"/><g fill="#009464"><circle cx="5.5" cy="7.5" r="1.5"/><circle cx="12.5" cy="7.5" r="1.5"/><path d="m10.5 5.5a1.5 1.5 0 1 1 -3 0 1.5 1.5 0 0 1 3 0z"/></g><path d="m5.3 10.87-1.3-.87v1.13l1.3.87zm.4 0 1.3-.87v1.13l-1.3.87zm6.6 0-1.3-.87v1.13l1.3.87zm.38 0 1.3-.87v1.13l-1.3.87zm-3.88.02-1.36-.95v1.23l1.36.96zm.4 0 1.36-.95v1.23l-1.36.96zm-.02-1.88 1.35-.95v1.24l-1.35.95zm-.4 0-1.34-.95v1.24l1.35.95v-1.24z" fill="#003693"/><path d="m13 10v1.75a2.25 2.25 0 0 1 -4.5 0v-4.31h1v4.31a1.25 1.25 0 1 0 2.5 0v-1.75z" fill="#003693"/><path d="m5 10v1.75a2.25 2.25 0 0 0 4.5 0v-4.31h-1v4.31a1.25 1.25 0 1 1 -2.5 0v-1.75z" fill="#003693"/></svg>

<!-- by TradingView --><svg width="18" height="18" viewBox="0 0 18 18" xmlns="http://www.w3.org/2000/svg"><path fill="#F0F3FA" d="M0 0h18v18H0z"/><circle cx="5.5" cy="7.5" r="1.5" fill="#009464"/><circle cx="12.5" cy="7.5" r="1.5" fill="#009464"/><path d="M10.5 5.5a1.5 1.5 0 1 1-3 0 1.5 1.5 0 0 1 3 0Z" fill="#009464"/><path d="M5.3 10.87 4 10v1.13l1.3.87v-1.13Zm.4 0L7 10v1.13L5.7 12v-1.13ZM12.3 10.87 11 10v1.13l1.3.87v-1.13Zm.38 0 1.3-.87v1.13l-1.3.87v-1.13ZM8.8 10.89l-1.36-.95v1.23l1.36.96v-1.24Zm.4 0 1.36-.95v1.23l-1.36.96v-1.24ZM9.18 9.01l1.35-.95V9.3l-1.35.95V9.01Zm-.4 0-1.34-.95V9.3l1.35.95V9.01Z" fill="#003693"/><path d="M13 10v1.75a2.25 2.25 0 0 1-4.5 0V7.44h1v4.31a1.25 1.25 0 1 0 2.5 0V10h1Z" fill="#003693"/><path d="M5 10v1.75a2.25 2.25 0 0 0 4.5 0V7.44h-1v4.31a1.25 1.25 0 1 1-2.5 0V10H5Z" fill="#003693"/></svg>
